theme-base/src/main/assets/themes/mapsforgeV3/base/symbols/db_poi_swimming.svg

<svg enable-background="new 0 0 48 48" height="48" viewBox="0 0 48 48" width="48" xmlns="http://www.w3.org/2000/svg"><path d="m44 42c-2.221 0-3.46-.74-4.359-1.28-.741-.44-1.202-.72-2.301-.72-1.119 0-1.561.26-2.3.72-.92.54-2.14 1.28-4.36 1.28s-3.459-.74-4.359-1.28c-.74-.439-1.2-.72-2.3-.72-1.12 0-1.56.26-2.3.72-.921.54-2.161 1.28-4.381 1.28s-3.46-.74-4.36-1.28c-.74-.46-1.2-.72-2.3-.72s-1.56.26-2.3.72c-.92.54-2.16 1.28-4.38 1.28v-4c1.12 0 1.56-.26 2.3-.72.92-.54 2.16-1.28 4.38-1.28s3.46.74 4.36 1.28c.74.46 1.18.72 2.3.72s1.56-.26 2.3-.72c.92-.54 2.16-1.28 4.38-1.28s3.46.74 4.36 1.28c.74.439 1.2.72 2.3.72s1.561-.26 2.301-.72c.899-.54 2.139-1.28 4.359-1.28 2.221 0 3.46.74 4.36 1.28.739.46 1.18.72 2.3.72zm0-9c-2.221 0-3.46-.74-4.359-1.28-.741-.44-1.202-.72-2.301-.72-1.119 0-1.561.26-2.3.72-.899.54-2.14 1.28-4.36 1.28s-3.459-.74-4.359-1.28c-.74-.439-1.2-.72-2.3-.72-1.12 0-1.56.26-2.3.72-.9.54-2.14 1.28-4.36 1.28s-3.46-.74-4.36-1.28c-.741-.44-1.201-.72-2.301-.72s-1.56.26-2.3.72c-.94.54-2.18 1.28-4.4 1.28v-4c1.12 0 1.56-.26 2.3-.72.9-.54 2.14-1.28 4.36-1.28s3.46.74 4.36 1.28c.74.439 1.2.72 2.3.72 1.12 0 1.56-.26 2.3-.72.9-.54 2.14-1.28 4.36-1.28s3.459.74 4.36 1.28c.74.439 1.2.72 2.301.72 1.1 0 1.56-.26 2.299-.72.9-.54 2.14-1.28 4.36-1.28s3.46.74 4.36 1.28c.74.44 1.199.72 2.3.72v4zm-26.66-9c1.12 0 1.56-.26 2.3-.72.92-.54 2.16-1.28 4.38-1.28s3.46.74 4.36 1.28c.74.439 1.2.72 2.3.72s1.561-.26 2.301-.72c.24-.14.52-.3.819-.46l-12.84-12.82c-3.1-3.1-5.96-4.02-10.96-4v5c3.64-.02 5.78.78 8 3l2 2-6.5 6.5c.62.24 1.12.54 1.54.78.74.46 1.18.72 2.3.72z"/><circle cx="33" cy="11" r="5"/></svg>

<?xml version="1.0" encoding="utf-8"?>
<!-- Generator: Adobe Illustrator 15.0.2, SVG Export Plug-In . SVG Version: 6.00 Build 0)  -->
<!DOCTYPE svg PUBLIC "-//W3C//DTD SVG 1.1//EN" "http://www.w3.org/Graphics/SVG/1.1/DTD/svg11.dtd">
<svg version="1.1" id="Vrstva_3" xmlns="http://www.w3.org/2000/svg" xmlns:xlink="http://www.w3.org/1999/xlink" x="0px" y="0px"
	 width="48px" height="48px" viewBox="0 0 48 48" enable-background="new 0 0 48 48" xml:space="preserve">
<g>
	<path d="M44,42c-2.221,0-3.46-0.74-4.359-1.28C38.9,40.28,38.439,40,37.34,40c-1.119,0-1.561,0.26-2.3,0.72
		C34.12,41.26,32.9,42,30.68,42c-2.22,0-3.459-0.74-4.359-1.28c-0.74-0.439-1.2-0.72-2.3-0.72c-1.12,0-1.56,0.26-2.3,0.72
		C20.8,41.26,19.56,42,17.34,42c-2.22,0-3.46-0.74-4.36-1.28c-0.74-0.46-1.2-0.72-2.3-0.72c-1.1,0-1.56,0.26-2.3,0.72
		C7.46,41.26,6.22,42,4,42v-4c1.12,0,1.56-0.26,2.3-0.72C7.22,36.74,8.46,36,10.68,36c2.22,0,3.46,0.74,4.36,1.28
		c0.74,0.46,1.18,0.72,2.3,0.72c1.12,0,1.56-0.26,2.3-0.72C20.56,36.74,21.8,36,24.02,36s3.46,0.74,4.36,1.28
		c0.74,0.439,1.2,0.72,2.3,0.72s1.561-0.26,2.301-0.72C33.88,36.74,35.12,36,37.34,36c2.221,0,3.46,0.74,4.36,1.28
		C42.439,37.74,42.88,38,44,38V42z M44,33c-2.221,0-3.46-0.74-4.359-1.28C38.9,31.28,38.439,31,37.34,31
		c-1.119,0-1.561,0.26-2.3,0.72C34.141,32.26,32.9,33,30.68,33c-2.22,0-3.459-0.74-4.359-1.28c-0.74-0.439-1.2-0.72-2.3-0.72
		c-1.12,0-1.56,0.26-2.3,0.72c-0.9,0.54-2.14,1.28-4.36,1.28c-2.22,0-3.46-0.74-4.36-1.28C12.26,31.28,11.8,31,10.7,31
		c-1.1,0-1.56,0.26-2.3,0.72C7.46,32.26,6.22,33,4,33v-4c1.12,0,1.56-0.26,2.3-0.72C7.2,27.74,8.44,27,10.66,27
		c2.22,0,3.46,0.74,4.36,1.28c0.74,0.439,1.2,0.72,2.3,0.72c1.12,0,1.56-0.26,2.3-0.72c0.9-0.54,2.14-1.28,4.36-1.28
		s3.459,0.74,4.36,1.28c0.74,0.439,1.2,0.72,2.301,0.72c1.1,0,1.56-0.26,2.299-0.72C33.84,27.74,35.08,27,37.3,27
		s3.46,0.74,4.36,1.28C42.4,28.72,42.859,29,43.96,29v4H44z M17.34,24c1.12,0,1.56-0.26,2.3-0.72C20.56,22.74,21.8,22,24.02,22
		s3.46,0.74,4.36,1.28c0.74,0.439,1.2,0.72,2.3,0.72s1.561-0.26,2.301-0.72c0.24-0.14,0.52-0.3,0.819-0.46L20.96,10
		C17.86,6.9,15,5.98,10,6v5c3.64-0.02,5.78,0.78,8,3l2,2l-6.5,6.5c0.62,0.24,1.12,0.54,1.54,0.78C15.78,23.74,16.22,24,17.34,24z"/>
	<circle cx="33" cy="11" r="5"/>
</g>
</svg>
